X:985
T:Glen Coe
C:Joe Buchanan's Scottish Tome - Page 569.1
I:569 1
Z:Carl Allison
R:Waltz
L:1/4
M:3/4
K:G
D | "G"B>A G | D2 D | "C"E2 C | "G"D2 D | B A G | D2 G | "D"F A2- | A2 d |
"G"B>A G | D2 D | "C"E2 C | "G"D2 D | "C"E<C G | "D7"F>G A | A "G"G2- | G2 D |
"G"G B>D | "D7"A c>D | "G"B d>B | "Em"G2 G | "Am"A c A | "D"D2 D/D/ | "G"(B d B) | "D7"A2 D |
"G"G B>D | "D7"A c>D | "G"B d>B | "Em"G2 D | "C"E G>F | "D7"F>G A | A "G"G2 | G2 |

